X: 445
M: 3/4
L: 1/8
K: Bb
|:\
f2edcB | A2B2c2 | F4E2 |\
|:\
c2dcBA | G2g2f2 | e4d2 |
cdedcB | A2B2c2 | F6 |\
f2edcB | A2B2c2 | F4E2 |\

